icons/server-16.svg

<svg xmlns="http://www.w3.org/2000/svg" width="16" height="16" viewBox="0 0 16 16"><path d="M1.75 1h12.5c.966 0 1.75.784 1.75 1.75v4c0 .372-.116.717-.314 1 .198.283.314.628.314 1v4a1.75 1.75 0 01-1.75 1.75H1.75A1.75 1.75 0 010 12.75v-4c0-.358.109-.707.314-1a1.739 1.739 0 01-.314-1v-4C0 1.784.784 1 1.75 1zM1.5 2.75v4c0 .138.112.25.25.25h12.5a.25.25 0 00.25-.25v-4a.25.25 0 00-.25-.25H1.75a.25.25 0 00-.25.25zm.25 5.75a.25.25 0 00-.25.25v4c0 .138.112.25.25.25h12.5a.25.25 0 00.25-.25v-4a.25.25 0 00-.25-.25zM7 4.75A.75.75 0 017.75 4h4.5a.75.75 0 010 1.5h-4.5A.75.75 0 017 4.75zM7.75 10h4.5a.75.75 0 010 1.5h-4.5a.75.75 0 010-1.5zM3 4.75A.75.75 0 013.75 4h.5a.75.75 0 010 1.5h-.5A.75.75 0 013 4.75zM3.75 10h.5a.75.75 0 010 1.5h-.5a.75.75 0 010-1.5z"/></svg>

<svg xmlns="http://www.w3.org/2000/svg" width="16" height="16" viewBox="0 0 16 16">
  <defs/>
  <path d="M1.75,1 L14.25,1 C15.216,1 16,1.784 16,2.75 L16,6.75 C16,7.122 15.884,7.467 15.686,7.75 C15.884,8.033 16,8.378 16,8.75 L16,12.75 C16,13.716 15.216,14.5 14.25,14.5 L1.75,14.5 C0.784,14.5 0,13.716 0,12.75 L0,8.75 C0,8.392 0.109,8.043 0.314,7.75 C0.116,7.467 0,7.122 0,6.75 L0,2.75 C0,1.784 0.784,1 1.75,1 Z M1.5,2.75 L1.5,6.75 C1.5,6.888 1.612,7 1.75,7 L14.25,7 C14.388,7 14.5,6.888 14.5,6.75 L14.5,2.75 C14.5,2.612 14.388,2.5 14.25,2.5 L1.75,2.5 C1.612,2.5 1.5,2.612 1.5,2.75 Z M1.75,8.5 C1.612,8.5 1.5,8.612 1.5,8.75 L1.5,12.75 C1.5,12.888 1.612,13 1.75,13 L14.25,13 C14.388,13 14.5,12.888 14.5,12.75 L14.5,8.75 C14.5,8.612 14.388,8.5 14.25,8.5 Z M7,4.75 C7,4.336 7.336,4 7.75,4 L12.25,4 C12.664,4 13,4.336 13,4.75 C13,5.164 12.664,5.5 12.25,5.5 L7.75,5.5 C7.336,5.5 7,5.164 7,4.75 Z M7.75,10 L12.25,10 C12.664,10 13,10.336 13,10.75 C13,11.164 12.664,11.5 12.25,11.5 L7.75,11.5 C7.336,11.5 7,11.164 7,10.75 C7,10.336 7.336,10 7.75,10 Z M3,4.75 C3,4.336 3.336,4 3.75,4 L4.25,4 C4.664,4 5,4.336 5,4.75 C5,5.164 4.664,5.5 4.25,5.5 L3.75,5.5 C3.336,5.5 3,5.164 3,4.75 Z M3.75,10 L4.25,10 C4.664,10 5,10.336 5,10.75 C5,11.164 4.664,11.5 4.25,11.5 L3.75,11.5 C3.336,11.5 3,11.164 3,10.75 C3,10.336 3.336,10 3.75,10 Z"/>
</svg>
